X:1
T:Title
%%score 1 2 3
L:1/8
M:3/2
K:C
V:1 treble nm="Part_1"
V:2 treble-8 nm="Part_2"
V:3 treble-8 nm="Part_3"
V:1
 z12 | z4 z4 A4 | _B4 A6 G2 | G4 E6 D2 | F4 A3 G E4 | D4 z4 G4 | G6 F2 D4 | G4 G4 A4 | %8
 A4 G2 G4 F2 | G4 z4 z4 | A4 c4 _B4 | A8 G4 | FG A2 _BA G4 F2 | G12 || D4 G8 | AG A2 _B2 G4 ^F2 | %16
 G4 c6 A2 | _B2 A3 G G3 ^FFE | G4 z4 A4 | _B4 A6 G2 | G4 E6 D2 | F2 A3 G F2 E4 | D4 z4 G4 | %23
 G6 F2 D4 | G4 G4 A4 | A4 G2 G3 E F2 | G4 z4 z4 | A4 c4 B4 | A8 G4 | FG A2 _B2 G4 F2 | G12 || %31
 G8 A4 | c4 _B2 A2 c=B c2 | d4 z4 c2 _B2 | A2 G2 A2 G4 F2 | G4 G4 z4 | G8 A4 | c4 _B2 A2 cB c2 | %38
 d4 z4 c2 _B2 | A3 G A2 G4 F2 | G4 z4 A4 | c4 _B2 G2 A4 | G4 E6 D2 | F2 A3 G F2 E4 | D4 z4 z4 | %45
 F6 G2 A4 | D6 E2 F2 G2 | AG A2 _B3 G G2 FE | G12 || G6 F2 E4 | F4 E4 D4 | E6 F2 G4 | A4 G2 G4 F2 | %53
 G8 z4 | G6 F2 E4 | F4 E4 D4 | E6 F2 G4 | A4 G2 G4 F2 | G4 z4 c4 | _B4 A4 A4 | G4 E6 D2 | %61
 F2 A3 G F2 E4 | D8 z4 | A4 c4 _B4 | A8 G4 | FG A2 _BA G4 F2 | G12 || G4 A6 G2 | _B4 A4 B2 G2 | %69
 G4 E4 F4 | F12 | G12 |] %72
V:2
 z4 z4 g4 | e4 d8 | G4 d8 | e4 g6 f2 | d2 c2 A2 d4 ^c2 | d8 e4- | e4 c2 d2 f4 | e8 c4 | d4 G4 A4 | %9
 G12 | c4 A4 G4 | d8 _e4 | d4 _B2 c2 A4 | G12 || G4 _B8 | c4 d2 _B2 A4 | G4 F8 | G3 F G2 _B2 A4 | %18
 G8 f4 | g4 d8 | e4 g6 f2 | d2 c2 A2 d4 ^c2 | d8 e4- | e4 c2 d2 f4 | e8 c4 | d4 G4 A4 | G12 | %27
 c4 A4 G4 | d8 _e4 | d4 _B2 c2 A4 | G12 || c8 f4 | e2 c2 d4 e4 | d6 c2 A2 G2 | c2 d3 c _B2 A4 | %35
 G12 | e8 d4 | a4 g2 f2 e4 | d4 G4 A2 G2 | z2 c4 _B2 A4 | G4 c8- | c8 z4 | e4 g6 f2 | %43
 d2 c2 A2 d4 c2 | d3 e f2 g2 e4 | d6 e2 c4 | f6 e2 d2 _B2 | c4 d2 _B2 A4 | G12 || c8 c4 | %50
 d4 c2 c4 B2 | c8 z4 | F4 G2 _B2 A4 | G12 | e6 f2 g4 | a4 g2 g4 f2 | g4 c8 | f4 e4 d4 | G8 A4 | %59
 G4 c8 | e4 g6 f2 | d2 c2 A2 d4 c2 | d12 | c4 A4 G4 | d8 e4 | d4 _B2 c2 A4 | G12 || _B4 c6 B2 | %68
 G4 F4 G4- | G4 A8 | A12 | G12 |] %72
V:3
 z12 | z12 | g4 f4 f2 e2 | c8 G2 _B2- | B2 F6 A4 | z4 f2 e2 c4- | c4 z4 z4 | c8 F4 | f4 e2 d4 c2 | %9
 d8 e4- | e4 f4 g4 | f8 c4 | z2 f4 _e2 c3 B | d12 || _B4 d8 | A4 G2 d2 c2 d2 | _e4 f8 | %17
 _e2 f2 d2 d4 c2 | d4 e4 d4 | G4 z4 f4 | c8 G2 _B2- | B2 F6 A4 | z4 f2 e2 c4- | c4 z4 z4 | c8 F4 | %25
 f4 e2 d4 c2 | d8 e4- | e4 f4 g4 | f8 c4 | z2 f4 _e2 c3 B | d12 || e8 d4 | g4 f2 d2 A4 | %33
 g2 f4 g2 f2 _e2- | e2 f4 d4 c2 | d4 z2 g4 e2 | c8 f2 d2 | A4 _B2 d2 A4 | z2 a2 g g2 e f2 g2 | %39
 f2 e2 c2 d4 c2 | d4 e6 c2 | e2 f2 g2 e6 | z2 c2 c4 G2 _B2- | B2 F6 A4 | _B2 G2 A2 G4 c2 | %45
 d2 _B2 A2 G2 F2 A2 | d2 _B4 c2 B2 G2 | z2 F2 f2 d4 c2 | d12 || z12 | z12 | g2 a3 g f2 e3 d | %52
 f4 e2 d4 c2 | d4 z2 d3 e f2 | c12 | F4 c4 z2 d2 | c4 A4 e4 | d4 z4 z4 | d4 e4 f4 | g4 e8 | %60
 c8 G2 _B2- | B2 F6 A4 | _B4 z2 F2 B4 | F4 f4 z2 g2 | f8 c4 | z2 f4 e2 c3 B | d12 || G4 F4 z4 | %68
 d2 _e2 f4 e2 d2 | d4 c8 | z4 c8 | d12 |] %72

